app/images/latter.svg

<svg width="29" height="20" viewBox="0 0 29 20" fill="none" xmlns="http://www.w3.org/2000/svg">
<path d="M22.7783 15.4468C22.6668 15.4468 22.5552 15.406 22.4681 15.3235L17.2483 10.4267C17.066 10.2561 17.0569 9.96855 17.2284 9.78621C17.3998 9.60206 17.6856 9.5939 17.8697 9.76625L23.0895 14.6631C23.2718 14.8336 23.2809 15.1212 23.1095 15.3035C23.0197 15.3988 22.8999 15.4468 22.7783 15.4468Z" fill="#979797"/>
<path d="M5.35442 15.447C5.23377 15.447 5.11311 15.399 5.02331 15.3037C4.85185 15.1214 4.86093 14.8338 5.04326 14.6633L10.2648 9.76644C10.4481 9.5959 10.7356 9.60316 10.9062 9.7864C11.0776 9.96874 11.0686 10.2563 10.8862 10.4269L5.66466 15.3237C5.57758 15.4062 5.466 15.447 5.35442 15.447Z" fill="#979797"/>
<path d="M25.8647 20H2.26788C1.01783 20 0 18.9831 0 17.7321V2.26788C0 1.01692 1.01783 0 2.26788 0H25.8647C27.1148 0 28.1326 1.01692 28.1326 2.26788V17.7321C28.1326 18.9831 27.1148 20 25.8647 20ZM2.26788 0.907153C1.51767 0.907153 0.907153 1.51767 0.907153 2.26788V17.7321C0.907153 18.4823 1.51767 19.0928 2.26788 19.0928H25.8647C26.615 19.0928 27.2255 18.4823 27.2255 17.7321V2.26788C27.2255 1.51767 26.615 0.907153 25.8647 0.907153H2.26788Z" fill="#979797"/>
<path d="M14.0667 12.2793C13.4634 12.2793 12.8602 12.0788 12.4012 11.6788L0.753313 1.51776C0.564625 1.35356 0.544668 1.0669 0.708863 0.877308C0.874872 0.688621 1.16062 0.671385 1.34931 0.833765L12.9972 10.9939C13.5768 11.4992 14.5566 11.4992 15.1353 10.9939L26.7686 0.850094C26.9564 0.685899 27.2422 0.704042 27.4091 0.893637C27.5733 1.08323 27.5542 1.36899 27.3656 1.53409L15.7322 11.6779C15.2723 12.0788 14.6699 12.2793 14.0667 12.2793Z" fill="#979797"/>
</svg>

<svg width="29" height="20" fill="none" xmlns="http://www.w3.org/2000/svg"><path d="M22.778 15.447a.45.45 0 0 1-.31-.123l-5.22-4.897a.453.453 0 1 1 .622-.66l5.22 4.896a.453.453 0 0 1-.312.784zM5.354 15.447a.454.454 0 0 1-.31-.784l5.22-4.897a.454.454 0 0 1 .622.66l-5.221 4.898a.45.45 0 0 1-.31.123z" fill="#979797"/><path d="M25.865 20H2.268A2.27 2.27 0 0 1 0 17.732V2.268A2.27 2.27 0 0 1 2.268 0h23.597a2.27 2.27 0 0 1 2.268 2.268v15.464A2.27 2.27 0 0 1 25.865 20zM2.268.907c-.75 0-1.36.61-1.36 1.36v15.465c0 .75.61 1.36 1.36 1.36h23.597c.75 0 1.36-.61 1.36-1.36V2.268c0-.75-.61-1.36-1.36-1.36H2.268z" fill="#979797"/><path d="M14.067 12.28c-.604 0-1.207-.201-1.666-.601L.753 1.518A.455.455 0 0 1 .71.878a.456.456 0 0 1 .64-.044l11.648 10.16c.58.505 1.56.505 2.138 0L26.77.85a.454.454 0 0 1 .597.684L15.732 11.678c-.46.4-1.062.601-1.665.601z" fill="#979797"/></svg>
